icons-rebrand/svg/video-plus-regular.svg

<svg xmlns="http://www.w3.org/2000/svg" width="32" height="32" viewBox="0 0 32 32" fill="none"><path d="M12.75 21.5C12.3358 21.5 12 21.1642 12 20.75V16.5H7.75C7.33579 16.5 7 16.1642 7 15.75C7 15.3358 7.33579 15 7.75 15H12V10.75C12 10.3358 12.3358 10 12.75 10C13.1642 10 13.5 10.3358 13.5 10.75V15H17.75C18.1642 15 18.5 15.3358 18.5 15.75C18.5 16.1642 18.1642 16.5 17.75 16.5H13.5V20.75C13.5 21.1642 13.1642 21.5 12.75 21.5Z M28.042 9.24937C28.3527 9.25606 28.6561 9.3448 28.9214 9.5066C29.176 9.66246 29.3862 9.88127 29.5317 10.1419C29.6771 10.4026 29.753 10.6964 29.752 10.9949V20.9959C29.752 21.2942 29.6758 21.5876 29.5305 21.8482C29.3853 22.1087 29.1758 22.3279 28.9221 22.4847C28.6683 22.6415 28.3787 22.7309 28.0806 22.7443C27.7826 22.7577 27.4861 22.6947 27.2193 22.5613L23.75 20.359V22C23.7486 23.2593 23.2477 24.4667 22.3572 25.3572C21.4667 26.2477 20.2593 26.7486 19 26.75H7C5.74067 26.7485 4.53333 26.2476 3.64285 25.3571C2.75237 24.4667 2.25146 23.2593 2.25 22V10C2.25143 8.74066 2.75233 7.53331 3.64282 6.64282C4.53331 5.75233 5.74066 5.25143 7 5.25H19C20.2593 5.2514 21.4667 5.7523 22.3572 6.64279C23.2477 7.53329 23.7486 8.74065 23.75 10V11.6317L27.1524 9.4685C27.4244 9.31828 27.7313 9.24267 28.042 9.24937ZM21.297 24.297C21.9063 23.6877 22.249 22.8616 22.25 22V10C22.249 9.13836 21.9063 8.31229 21.297 7.70301C20.6877 7.09374 19.8616 6.75101 19 6.75H7C6.13836 6.75101 5.31229 7.09374 4.70301 7.70301C4.09374 8.31229 3.75101 9.13836 3.75 10V22C3.75101 22.8616 4.09374 23.6877 4.70301 24.297C5.31229 24.9063 6.13836 25.249 7 25.25H19C19.8616 25.249 20.6877 24.9063 21.297 24.297ZM28.221 21.1184C28.2419 21.081 28.2525 21.0389 28.252 20.9961V10.9949C28.2527 10.9522 28.2421 10.9101 28.2213 10.8729C28.2004 10.8357 28.1701 10.8047 28.1333 10.783C28.0976 10.7596 28.0562 10.7462 28.0135 10.7443C27.9708 10.7424 27.9284 10.752 27.8907 10.7722L23.75 13.4086V18.5828L27.9571 21.2578C27.9991 21.2773 28.0889 21.2353 28.1333 21.209C28.17 21.187 28.2002 21.1557 28.221 21.1184Z"/></svg>

<svg width="32" height="32" fill="none" xmlns="http://www.w3.org/2000/svg"><path d="M12.75 21.5a.75.75 0 0 1-.75-.75V16.5H7.75a.75.75 0 0 1 0-1.5H12v-4.25a.75.75 0 0 1 1.5 0V15h4.25a.75.75 0 0 1 0 1.5H13.5v4.25a.75.75 0 0 1-.75.75Z" fill="#0F0F0F"/><path d="M28.042 9.25a1.739 1.739 0 0 1 1.71 1.746v10a1.75 1.75 0 0 1-2.533 1.565L23.75 20.36V22A4.755 4.755 0 0 1 19 26.75H7A4.756 4.756 0 0 1 2.25 22V10A4.755 4.755 0 0 1 7 5.25h12A4.755 4.755 0 0 1 23.75 10v1.632l3.402-2.163c.272-.15.58-.226.89-.22Zm-6.745 15.047c.61-.61.952-1.435.953-2.297V10A3.254 3.254 0 0 0 19 6.75H7A3.254 3.254 0 0 0 3.75 10v12A3.254 3.254 0 0 0 7 25.25h12a3.254 3.254 0 0 0 2.297-.953Zm6.924-3.179a.245.245 0 0 0 .031-.122V10.995a.242.242 0 0 0-.119-.212.238.238 0 0 0-.242-.01l-4.141 2.636v5.174l4.207 2.675c.042.02.132-.023.176-.049a.244.244 0 0 0 .088-.09Z" fill="#0F0F0F"/></svg>
